X:211
T:Isle of Beauty
O:No 211 Page 103 William Clarke of Feltwell
M:4/4
L:1/8
K:G
B3AG2G2|d3cc2B2|g3d (fe)(dc)|(BA)(GF)G4|B3AG2G2|d3cc2B2|g3d (fe)(dc)|BA(d>F)G4|A3GF2F2|c3BB2A2|A3AB2B2|c2^c>dd3=c|B3AG2G2|d3cc2B2|g3d (fe)(cA)|Hd3FG4:|

